X:4099
T:Dever the Dancer
T:Humours of Whiskey, The
R:slip jig
H:Two versions included. See also #37.
Z:id:hn-slipjig-7
M:9/8
K:Edor
BEE BEF G2A|BEE BAG FGA|BEE BEF G2A|Bcd ABG FED:|
ded =cAF ~G3|Add def gfe|ded =cAF G2A|B^cd ABG FED|
~d3 =cAF ~G3|Add def ~g3|afd efe d2A|Bcd ABG FED||
